src/files/icons/svg/key2.svg

<?xml version="1.0" standalone="no"?>
<!-- Generator: Adobe Fireworks 10, Export SVG Extension by Aaron Beall (http://fireworks.abeall.com) . Version: 0.6.1  -->
<!DOCTYPE svg PUBLIC "-//W3C//DTD SVG 1.1//EN" "http://www.w3.org/Graphics/SVG/1.1/DTD/svg11.dtd">
<svg id="Icons.fw-key2" viewBox="0 0 16 16" style="background-color:#ffffff00" version="1.1"
	xmlns="http://www.w3.org/2000/svg" xmlns:xlink="http://www.w3.org/1999/xlink" xml:space="preserve"
	x="0px" y="0px" width="16px" height="16px"
>
	<path id="base" d="M 11 0 C 8.2393 0 6 2.2388 6 5 C 6 5.313 6.0288 5.6191 6.084 5.916 L 0 12 L 0 15 C 0 15.5527 0.4482 16 1 16 L 2 16 L 2 15 L 4 15 L 4 13 L 6 13 L 6 11 L 8 11 L 9.2979 9.7021 C 9.8291 9.8945 10.4023 10 11 10 C 13.7607 10 16 7.7612 16 5 C 16 2.2388 13.7607 0 11 0 ZM 12.498 5.002 C 11.6699 5.002 10.998 4.3301 10.998 3.502 C 10.998 2.6738 11.6699 2.002 12.498 2.002 C 13.3262 2.002 13.998 2.6738 13.998 3.502 C 13.998 4.3301 13.3262 5.002 12.498 5.002 Z" fill="#ffffff"/>
</svg>

<?xml version="1.0" encoding="utf-8"?>
<!-- Generated by IcoMoon.io -->
<!DOCTYPE svg PUBLIC "-//W3C//DTD SVG 1.1//EN" "http://www.w3.org/Graphics/SVG/1.1/DTD/svg11.dtd">
<svg version="1.1" xmlns="http://www.w3.org/2000/svg" xmlns:xlink="http://www.w3.org/1999/xlink" width="16" height="16" viewBox="0 0 16 16">
<g id="icomoon-ignore">
	<line stroke-width="1" x1="" y1="" x2="" y2="" stroke="#449FDB" opacity=""></line>
</g>
	<path d="M11 0c-2.761 0-5 2.239-5 5 0 0.313 0.029 0.619 0.084 0.916l-6.084 6.084v3c0 0.552 0.448 1 1 1h1v-1h2v-2h2v-2h2l1.298-1.298c0.531 0.192 1.105 0.298 1.702 0.298 2.761 0 5-2.239 5-5s-2.239-5-5-5zM12.498 5.002c-0.828 0-1.5-0.672-1.5-1.5s0.672-1.5 1.5-1.5 1.5 0.672 1.5 1.5-0.672 1.5-1.5 1.5z" fill="#ffffff"></path>
</svg>
